%
O1001
(303SS PIZZA CUTTER S1)
(5.313 LONG)
/G28U0.
/G28W0.
G00X10.Z10.
G50S2000 
(FACE-CHMFR)
G00T0100M08
M41
G97S1672M03
X0.852Z0.03T0101 
G96S0400 
G01X0.286F.004 
X0.326Z0.05
G00X0.852
Z0.
G01X0.286
X0.326Z0.02
G00X0.692
Z0.05
G01Z0.0054 
X0.752Z-0.0246F0.012 
X0.792Z-0.0046F0.008 
G00Z0.05 
X0.663 
G01Z0.0199 
X0.692Z0.0054F0.012
X0.732Z0.0254F0.008
G97
G00X10.Z10.T0100M09
 
N2M01
(30 CHFR CARBIDE BAR)
G50S2000 
G00T0600M08
M41
G97S1800M03
X0.5662Z0.25T0606
Z.05 
G96S400
G01Z0.F0.003 
G02X0.5402Z-0.0075R0.015 
G01X0.5085Z-0.035
X.475
G00Z0.05 
G97S1800 
X10.Z10.T0600M09 
 
N3M01
G50S2000 
(FIN OD)
G00T0500M08
M41
G97S1800M03
X0.693Z0.05T0505 
G96S400
G01Z0.0066F0.004 
X0.745Z-0.0194 
Z-0.80 
X0.852 
G97S1500 
G00X10.Z10.T0500M09
M01
M05
/G28U0.W0. 
M30
 
%
