%
O0011
(1.125 HT4340)
(SAW CUT 5.410)
(FACE TO 5.350 AFTER HT)
G00X9.0Z2.0
G97S1190M03
(DNMG 432 CARBIDE) 
(FACE) 
N1G50S2000 
G00T0100M08
X1.222Z-0.051T0101 
G96S0400 
G01G09X1.1477F0.006
G09X1.0457Z0.
X-0.062
Z0.07
G97S800M09 
G00X9.0Z2.0T0100 
M30
 
N2G50
G00T0200M08
M41
G97S0800M03
X0.Z.01T0202 
G01Z-.204F0.002
G00Z0.03M09
G97S100
X9.0Z2.0T0200M09 
M01
M05
/G28U0.W0. 
M30
%
